packages/kaspersky-hexa-ui-icons/src/iconsSVGs/24/UnlockSolid.svg

<svg width="24" height="24" viewBox="0 0 24 24" fill="none" xmlns="http://www.w3.org/2000/svg">
<path d="M12 2C9.23858 2 7 4.23858 7 7V10C5.34315 10 4 11.3431 4 13V19C4 20.6569 5.34315 22 7 22H17C18.6569 22 20 20.6569 20 19V13C20 11.3431 18.6569 10 17 10H9V7C9 5.34315 10.3431 4 12 4C13.2574 4 14.3365 4.77394 14.7823 5.87522C14.9895 6.38715 15.5725 6.63416 16.0845 6.42694C16.5964 6.21971 16.8434 5.63672 16.6362 5.12478C15.8952 3.29423 14.0999 2 12 2Z" fill="black"/>
</svg>

<svg xmlns="http://www.w3.org/2000/svg" width="24" height="24" fill="none" viewBox="0 0 24 24"><path fill="#000" d="M12 2C9.2386 2 7 4.2386 7 7v3c-1.6569 0-3 1.3431-3 3v6c0 1.6569 1.3431 3 3 3h10c1.6569 0 3-1.3431 3-3v-6c0-1.6569-1.3431-3-3-3H9V7c0-1.6569 1.3431-3 3-3 1.2574 0 2.3365.774 2.7823 1.8752.2072.512.7902.759 1.3022.5517.5119-.2072.7589-.7902.5517-1.3021C15.8952 3.2942 14.0999 2 12 2"/></svg>
